X: 4807
T: Lord Drighorn's Reel
C: Robert Mackintosh
R: jig
B: RSCDS 48-7
Z: 2015 by John Chambers <jc:trillian.mit.edu>
N: Tune for the dance Sunshine and Sweetie's Jig
M: 6/8
L: 1/8
K: D
A |\
"D"d3 "C#/A7"ABc | "Bm"dAG "A/D"FED | "D"d3 "G/Em7"Bcd | "A"efe "C#/A7"cBA |\
"D"d3 "F#/D"Adc | "G"BAG "F#/D"FED | "Em"GFG "A7"EAG | "D"FDD D2 :|
A |\
"D"F>ED "F#/D"AFD | "G"GBd "B/G"dBG | "D"F>ED "Bm"AFD | "Bm"E3 "A7"A,2G |\
"D"F>ED "F#/D"AFD | "G"GBd "B/G"dBG | "A7"Ace "C#/A7"gfe | "D"fdd d2 ||
"A7"A |\
"D"F>ED "F#/D"AFD | "G"GBd "B/G"dBG | "D"F>ED "Bm"AGF | "Em"E3 "A7"A,2G |\
"D"FED "E/A7"GFE | "F#/D"AGF "G"BAG | "A7"Aag "C#/A7"fge | "D"fdd d2 |]
